X:8601
T:Harliquin Air
T:Harlequin Air
R:March
C:Trad. - Cooke 1770
O:England
Z:Paul Hardy's Annex Tunebook 2015 (see www.paulhardy.net). Creative Commons cc by-nc-sa licenced.
M:2/2
L:1/4
Q:1/2=100
K:D
"D"d A A d|"A"c/d/e/c/ A2|"G" B G G E|"A"F/G/A/F/ "D"D2|d A A d|"A"c/d/e/c/ A g|"D"f e/d/ c d|"A"e2-e2:|
|:"A"e a a e|"D"f/g/a/f/ d2|"G"B g g B|"A"c/d/e/c/ A2|A a a g|"D"f/e/d/c/ d G|F d "A"E c|"D"d2-d2:|

